symbolic/22x22/apps/gwenview.svg

<svg xmlns="http://www.w3.org/2000/svg" width="22" height="22" version="1">
 <path style="opacity:0.2" d="m 0.1570495,11.795151 0.3432442,0.204922 c 0.1497562,0 -0.57898323,0.181552 -0.4498799,0.470399 C 0.8479168,14.254749 4.0341635,20.5 9.6950389,20.5 c 6.3051221,0 9.8050921,-4.499961 9.8050921,-4.499961 0,0 -4.486376,2.784395 -8.999923,2.499957 C 4.7574983,18.138287 0.2003207,11.848967 0.1570542,11.795162 Z"/>
 <path style="fill:#f9f9f9" d="m 0.697692,11.799805 c 0,0 6.7489923,3.864772 12.432094,1.747799 5.682552,-2.117153 8.146896,-9.4148504 8.146896,-9.4148504 0,0 -6.376461,-2.8943354 -12.0591961,-0.7771817 C 3.5347509,5.4727266 0.697692,11.799805 0.697692,11.799805 Z"/>
 <path style="fill:#395162" d="M 6.0253213,8.4977417 C 6.2997355,11.24076 8.7550344,13.249482 11.49806,12.974885 14.240902,12.700472 16.249446,10.245182 15.975033,7.5021632 15.700619,4.7587767 13.245321,2.7506096 10.502293,3.0252065 7.7592675,3.2996192 5.7507232,5.7543551 6.0253213,8.4977417 Z"/>
 <path style="opacity:0.1" d="M 7.5177864,8.8483882 C 7.7098785,10.768521 9.4286019,12.174639 11.348737,11.982419 13.268741,11.790328 14.674733,10.07161 14.482644,8.1514774 14.290552,6.2310911 12.571829,4.8253623 10.651694,5.0175808 8.731559,5.2096718 7.325565,6.9280022 7.5177864,8.8483882 Z"/>
 <path style="fill:#276e7a" d="M 7.5177864,8.3483898 C 7.7098785,10.268522 9.4286019,11.674639 11.348737,11.482419 13.268741,11.290328 14.674733,9.57161 14.482644,7.6514792 14.290552,5.7310929 12.571829,4.3253642 10.651694,4.5175827 8.731559,4.7096737 7.325565,6.428004 7.5177864,8.3483898 Z"/>
 <path style="fill:#323232" d="m 11.005372,6.00008 c -0.0675,-1.215e-4 -0.136,0.0036 -0.204582,0.0104 C 9.7034639,6.120226 8.9002077,7.1019141 9.0102649,8.1992747 9.1200239,9.296046 10.101665,10.099982 11.19958,9.989951 12.296905,9.880205 13.099867,8.8979247 12.990106,7.8011541 12.887213,6.7723799 12.017824,6.001956 11.005372,6.000108 Z"/>
 <path style="opacity:0.2" d="M 11.94747,1.5019491 C 10.786805,1.521969 9.5967389,1.6985258 8.439657,2.109371 2.2683922,4.3008448 0.0392664,11.818355 0.0392664,11.818355 a 0.9167606,0.87384067 0 0 0 0.3984375,0.998047 c 0,0 6.9516822,4.247908 13.1230471,2.056641 6.171227,-2.191634 8.400391,-9.7109371 8.400391,-9.7109376 A 0.9167606,0.87384067 0 0 0 21.562704,4.1660116 c 0,0 -4.585893,-2.7508237 -9.615234,-2.6640625 z m 1.951172,1.9980469 c 3.622745,-0.042999 6.601562,1.1582031 6.601562,1.1582031 0,0 -2.427339,6.2788279 -7.673828,8.2128909 -5.2466727,1.934064 -11.3261721,-1.208985 -11.3261721,-1.208985 0,0 2.7435612,-5.4606509 7.990234,-7.3945309 C 10.965961,3.7236703 12.481047,3.5168199 13.898642,3.499996 Z"/>
 <path style="fill:#ef46c4" d="M 11.94747,1.0019531 C 10.786805,1.021973 9.5967389,1.1985298 8.439657,1.609375 2.2683922,3.8008488 0.0392664,11.318359 0.0392664,11.318359 a 0.9167606,0.87384067 0 0 0 0.3984375,0.998047 c 0,0 6.9516822,4.247908 13.1230471,2.056641 6.171227,-2.191634 8.400391,-9.7109371 8.400391,-9.7109376 A 0.9167606,0.87384067 0 0 0 21.562704,3.6660156 c 0,0 -4.585893,-2.7508237 -9.615234,-2.6640625 z M 13.898642,3 c 3.622745,-0.042999 6.601562,1.1582031 6.601562,1.1582031 0,0 -2.427339,6.2788279 -7.673828,8.2128909 -5.2466727,1.934064 -11.3261721,-1.208985 -11.3261721,-1.208985 0,0 2.7435612,-5.4606509 7.990234,-7.3945309 C 10.965961,3.2236743 12.481047,3.0168239 13.898642,3 Z"/>
 <path style="fill:#ef46c4" d="m 0.1570495,11.295155 0.3432442,0.204922 c 0.1497562,0 -0.57898323,0.181552 -0.4498799,0.470399 0.797503,1.784277 3.9837497,8.029528 9.6446251,8.029528 6.3051221,0 9.8050921,-4.499961 9.8050921,-4.499961 0,0 -4.486376,2.784395 -8.999923,2.499957 C 4.7574983,17.638291 0.2003207,11.348971 0.1570542,11.295166 Z"/>
 <path style="opacity:0.2;fill:#ffffff" d="M 11.94747,1.0019531 C 10.786805,1.021973 9.5967389,1.1985298 8.439657,1.609375 2.2683922,3.8008488 0.0392664,11.318359 0.0392664,11.318359 a 0.9167606,0.87384067 0 0 0 0,0.5 c 0,0 2.2291258,-7.5175102 8.4003906,-9.708984 1.1570819,-0.4108452 2.347148,-0.587402 3.507813,-0.6074219 5.029341,-0.086761 9.615234,2.6640625 9.615234,2.6640625 a 0.9167606,0.87384067 0 0 1 0.398438,0.4960938 0.9167606,0.87384067 0 0 0 -0.398438,-0.9960938 c 0,0 -4.585893,-2.7508237 -9.615234,-2.6640625 z m 8.357422,3.5859375 C 19.84038,5.6722737 17.516027,10.642303 12.826376,12.371094 7.8710089,14.197775 2.3462036,11.57133 1.7287195,11.265625 c -0.068769,0.124848 -0.2285156,0.396484 -0.2285156,0.396484 0,0 6.0794992,3.143049 11.3261721,1.208985 5.246489,-1.934063 7.673828,-8.2128909 7.673828,-8.2128909 0,0 -0.144984,-0.051252 -0.195312,-0.070312 z M 1.5119227,13.386719 C 3.2727771,15.289823 6.5917256,18.253821 10.500204,18.5 13.715256,18.702609 16.885278,17.356665 18.461142,16.560547 19.121461,15.957739 19.500204,15.5 19.500204,15.5 c 0,0 -4.486453,2.784438 -9,2.5 C 7.1879206,17.791373 4.3117396,15.632893 2.4357508,13.820312 2.0865392,13.66573 1.7753597,13.518366 1.5119227,13.386719 Z"/>
</svg>

<svg xmlns="http://www.w3.org/2000/svg" width="22" height="22" version="1"><path style="opacity:.2" d="M.157 11.795.5 12c.15 0-.579.182-.45.47.798 1.785 3.984 8.03 9.645 8.03C16 20.5 19.5 16 19.5 16s-4.486 2.784-9 2.5C4.757 18.138.2 11.849.157 11.795z"/><path style="fill:#f9f9f9" d="M.698 11.8s6.749 3.865 12.432 1.748c5.682-2.118 8.147-9.415 8.147-9.415S14.9 1.238 9.217 3.356C3.535 5.473.697 11.8.697 11.8z"/><path style="fill:#395162" d="M6.025 8.498a5.006 5.006 0 0 0 5.473 4.477 5.006 5.006 0 0 0 4.477-5.473 5.005 5.005 0 0 0-5.473-4.477 5.005 5.005 0 0 0-4.477 5.473z"/><path style="opacity:.1" d="M7.518 8.848a3.504 3.504 0 0 0 3.83 3.134 3.504 3.504 0 0 0 3.135-3.83 3.504 3.504 0 0 0-3.831-3.134 3.504 3.504 0 0 0-3.134 3.83z"/><path style="fill:#276e7a" d="M7.518 8.348a3.504 3.504 0 0 0 3.83 3.134 3.504 3.504 0 0 0 3.135-3.83 3.504 3.504 0 0 0-3.831-3.134 3.504 3.504 0 0 0-3.134 3.83z"/><path style="fill:#323232" d="M11.005 6A2.001 2.001 0 0 0 9.01 8.2a2.002 2.002 0 0 0 2.19 1.79 2.002 2.002 0 0 0 1.79-2.189 2.003 2.003 0 0 0-1.985-1.8z"/><path style="opacity:.2" d="M11.947 1.502c-1.16.02-2.35.197-3.507.607-6.172 2.192-8.4 9.71-8.4 9.71a.917.874 0 0 0 .398.997s6.951 4.248 13.123 2.057c6.171-2.192 8.4-9.71 8.4-9.71a.917.874 0 0 0-.398-.997s-4.586-2.75-9.616-2.664zM13.9 3.5C17.52 3.457 20.5 4.658 20.5 4.658s-2.427 6.279-7.674 8.213C7.58 14.805 1.5 11.662 1.5 11.662s2.744-5.46 7.99-7.394c1.476-.544 2.991-.751 4.409-.768z"/><path style="fill:#ef46c4" d="M11.947 1.002c-1.16.02-2.35.197-3.507.607-6.172 2.192-8.4 9.71-8.4 9.71a.917.874 0 0 0 .398.997s6.951 4.248 13.123 2.057c6.171-2.192 8.4-9.71 8.4-9.71a.917.874 0 0 0-.398-.997s-4.586-2.75-9.616-2.664zM13.9 3C17.52 2.957 20.5 4.158 20.5 4.158s-2.427 6.279-7.674 8.213C7.58 14.305 1.5 11.162 1.5 11.162s2.744-5.46 7.99-7.394c1.476-.544 2.991-.751 4.409-.768z"/><path style="fill:#ef46c4" d="M.157 11.295.5 11.5c.15 0-.579.182-.45.47C.848 13.755 4.034 20 9.695 20 16 20 19.5 15.5 19.5 15.5s-4.486 2.784-9 2.5C4.757 17.638.2 11.349.157 11.295z"/><path style="opacity:.2;fill:#fff" d="M11.947 1.002c-1.16.02-2.35.197-3.507.607-6.172 2.192-8.4 9.71-8.4 9.71a.917.874 0 0 0 0 .5s2.228-7.518 8.4-9.71c1.157-.41 2.347-.587 3.507-.607 5.03-.087 9.616 2.664 9.616 2.664a.917.874 0 0 1 .398.496.917.874 0 0 0-.398-.996s-4.586-2.75-9.616-2.664zm8.358 3.586c-.465 1.084-2.789 6.054-7.479 7.783-4.955 1.827-10.48-.8-11.097-1.105-.069.124-.229.396-.229.396s6.08 3.143 11.326 1.21c5.247-1.935 7.674-8.214 7.674-8.214l-.195-.07zM1.512 13.387c1.76 1.903 5.08 4.867 8.988 5.113 3.215.203 6.385-1.143 7.961-1.94.66-.602 1.04-1.06 1.04-1.06s-4.487 2.784-9 2.5c-3.313-.209-6.19-2.367-8.065-4.18a22.05 22.05 0 0 1-.924-.433z"/></svg>
